**harm	**harte	**timestamp	**phrase	**leadinstrument	**kern
*M4/4	*M4/4	*	*	*	*
*d:	*d:	*	*	*	*d:
1r;	N	0	.	r	1r;
=1	=1	=1	=1	=1	=1
*>A_preverse	*>A_preverse	*>A_preverse	*>A_preverse	*>A_preverse	*>A_preverse
1i	D:sus4(b7)	0.186	newline	r	1D 1f 1a
=2	=2	=2	=2	=2	=2
1i	D:sus4(b7)	2.496	.	r	1D 1f 1a
=3	=3	=3	=3	=3	=3
1i	D:sus4(b7)	4.806	.	r	1D 1f 1a
=4	=4	=4	=4	=4	=4
1i	D:sus4(b7)	7.117	.	r	1D 1f 1a
=5	=5	=5	=5	=5	=5
1i	D:sus4(b7)	9.427	newline	r	1D 1f 1a
=6	=6	=6	=6	=6	=6
1i	D:sus4(b7)	11.587	.	r	1D 1f 1a
=7	=7	=7	=7	=7	=7
1i	D:sus4(b7)	13.748	.	r	1D 1f 1a
=8	=8	=8	=8	=8	=8
1i	D:sus4(b7)	15.908	.	r	1D 1f 1a
=9	=9	=9	=9	=9	=9
*>B_verse	*>B_verse	*>B_verse	*>B_verse	*>B_verse	*>B_verse
2-VI	B-:maj	18.068	newline	voice	2B-- 2dd- 2ff-
2-VII	C:maj	19.147	.	voice	2C 2e 2g
=10	=10	=10	=10	=10	=10
1i	D:min	20.225	.	voice	1D 1f 1a
=11	=11	=11	=11	=11	=11
2-VI	B-:maj	22.383	.	voice	2B-- 2dd- 2ff-
2-VII	C:maj	23.461	.	voice	2C 2e 2g
=12	=12	=12	=12	=12	=12
1i	D:min	24.54	.	voice	1D 1f 1a
=13	=13	=13	=13	=13	=13
2-VI	B-:maj	26.697	newline	voice	2B-- 2dd- 2ff-
2-VII	C:maj	27.783	.	voice	2C 2e 2g
=14	=14	=14	=14	=14	=14
2i	D:min	28.868	.	voice	2D 2f 2a
2iv	G:min	29.954	.	voice	2G 2b- 2dd
=15	=15	=15	=15	=15	=15
2-VI	B-:maj	31.039	.	voice	2B-- 2dd- 2ff-
2-VII	C:maj	32.125	.	voice	2C 2e 2g
=16	=16	=16	=16	=16	=16
1i	D:min	33.211	.	voice	1D 1f 1a
=17	=17	=17	=17	=17	=17
2-VI	B-:maj	35.382	.	voice	2B-- 2dd- 2ff-
2-VII	C:maj	36.468	.	voice	2C 2e 2g
=18	=18	=18	=18	=18	=18
*>A_preverse	*>A_preverse	*>A_preverse	*>A_preverse	*>A_preverse	*>A_preverse
1i	D:sus4(b7)	37.553	newline	voice	1D 1f 1a
=19	=19	=19	=19	=19	=19
1i	D:sus4(b7)	39.698	.	voice	1D 1f 1a
=20	=20	=20	=20	=20	=20
1i	D:sus4(b7)	41.843	.	voice	1D 1f 1a
=21	=21	=21	=21	=21	=21
1i	D:sus4(b7)	43.987	.	voice	1D 1f 1a
=22	=22	=22	=22	=22	=22
*>B_verse	*>B_verse	*>B_verse	*>B_verse	*>B_verse	*>B_verse
2-VI	B-:maj	46.132	newline	voice	2B-- 2dd- 2ff-
2-VII	C:maj	47.217	.	voice	2C 2e 2g
=23	=23	=23	=23	=23	=23
1i	D:min	48.301	.	voice	1D 1f 1a
=24	=24	=24	=24	=24	=24
2-VI	B-:maj	50.47	.	voice	2B-- 2dd- 2ff-
2-VII	C:maj	51.554	.	voice	2C 2e 2g
=25	=25	=25	=25	=25	=25
1i	D:min	52.638	.	voice	1D 1f 1a
=26	=26	=26	=26	=26	=26
2-VI	B-:maj	54.807	newline	voice	2B-- 2dd- 2ff-
2-VII	C:maj	55.89	.	voice	2C 2e 2g
=27	=27	=27	=27	=27	=27
2i	D:min	56.974	.	voice	2D 2f 2a
2iv	G:min	58.057	.	voice	2G 2b- 2dd
=28	=28	=28	=28	=28	=28
2-VI	B-:maj	59.141	.	voice	2B-- 2dd- 2ff-
2-VII	C:maj	60.224	.	voice	2C 2e 2g
=29	=29	=29	=29	=29	=29
1i	D:min	61.308	.	voice	1D 1f 1a
=30	=30	=30	=30	=30	=30
2-VI	B-:maj	63.474	.	voice	2B-- 2dd- 2ff-
2-VII	C:maj	64.558	.	voice	2C 2e 2g
=31	=31	=31	=31	=31	=31
*>A_preverse	*>A_preverse	*>A_preverse	*>A_preverse	*>A_preverse	*>A_preverse
1i	D:sus4(b7)	65.641	newline	voice	1D 1f 1a
=32	=32	=32	=32	=32	=32
1i	D:sus4(b7)	67.79	.	voice	1D 1f 1a
=33	=33	=33	=33	=33	=33
1i	D:sus4(b7)	69.939	.	voice	1D 1f 1a
=34	=34	=34	=34	=34	=34
1i	D:sus4(b7)	72.088	.	voice	1D 1f 1a
=35	=35	=35	=35	=35	=35
*>B2_solo	*>B2_solo	*>B2_solo	*>B2_solo	*>B2_solo	*>B2_solo
2-VI	B-:maj	74.237	newline	guitar	2B-- 2dd- 2ff-
2-VII	C:maj	75.326	.	guitar	2C 2e 2g
=36	=36	=36	=36	=36	=36
1i	D:min	76.414	.	guitar	1D 1f 1a
=37	=37	=37	=37	=37	=37
2-VI	B-:maj	78.59	.	guitar	2B-- 2dd- 2ff-
2-VII	C:maj	79.678	.	guitar	2C 2e 2g
=38	=38	=38	=38	=38	=38
1i	D:min	80.766	.	guitar	1D 1f 1a
=39	=39	=39	=39	=39	=39
2-VI	B-:maj	82.942	newline	guitar	2B-- 2dd- 2ff-
2-VII	C:maj	84.025	.	guitar	2C 2e 2g
=40	=40	=40	=40	=40	=40
2i	D:min	85.108	.	guitar	2D 2f 2a
2iv	G:min	86.191	.	guitar	2G 2b- 2dd
=41	=41	=41	=41	=41	=41
2-VI	B-:maj	87.274	.	guitar	2B-- 2dd- 2ff-
2-VII	C:maj	88.357	.	guitar	2C 2e 2g
=42	=42	=42	=42	=42	=42
1i	D:min	89.44	.	guitar	1D 1f 1a
=43	=43	=43	=43	=43	=43
2-VI	B-:maj	91.606	.	guitar	2B-- 2dd- 2ff-
2-VII	C:maj	92.689	.	guitar	2C 2e 2g
=44	=44	=44	=44	=44	=44
*>A_preverse	*>A_preverse	*>A_preverse	*>A_preverse	*>A_preverse	*>A_preverse
1i	D:sus4(b7)	93.772	newline	guitar	1D 1f 1a
=45	=45	=45	=45	=45	=45
1i	D:sus4(b7)	95.926	.	guitar	1D 1f 1a
=46	=46	=46	=46	=46	=46
1i	D:sus4(b7)	98.08	.	guitar	1D 1f 1a
=47	=47	=47	=47	=47	=47
1i	D:sus4(b7)	100.234	.	guitar	1D 1f 1a
=48	=48	=48	=48	=48	=48
*>B_verse	*>B_verse	*>B_verse	*>B_verse	*>B_verse	*>B_verse
2-VI	B-:maj	102.389	newline	voice	2B-- 2dd- 2ff-
2-VII	C:maj	103.47	.	voice	2C 2e 2g
=49	=49	=49	=49	=49	=49
1i	D:min	104.552	.	voice	1D 1f 1a
=50	=50	=50	=50	=50	=50
2-VI	B-:maj	106.716	.	voice	2B-- 2dd- 2ff-
2-VII	C:maj	107.797	.	voice	2C 2e 2g
=51	=51	=51	=51	=51	=51
1i	D:min	108.879	.	voice	1D 1f 1a
=52	=52	=52	=52	=52	=52
2-VI	B-:maj	111.042	newline	voice	2B-- 2dd- 2ff-
2-VII	C:maj	112.128	.	voice	2C 2e 2g
=53	=53	=53	=53	=53	=53
2i	D:min	113.213	.	voice	2D 2f 2a
2iv	G:min	114.298	.	voice	2G 2b- 2dd
=54	=54	=54	=54	=54	=54
2-VI	B-:maj	115.384	.	voice	2B-- 2dd- 2ff-
2-VII	C:maj	116.469	.	voice	2C 2e 2g
=55	=55	=55	=55	=55	=55
1i	D:min	117.554	.	voice	1D 1f 1a
=56	=56	=56	=56	=56	=56
2-VI	B-:maj	119.725	newline	voice	2B-- 2dd- 2ff-
2-VII	C:maj	120.809	.	voice	2C 2e 2g
=57	=57	=57	=57	=57	=57
1i	D:min	121.894	.	voice	1D 1f 1a
=58	=58	=58	=58	=58	=58
2-VI	B-:maj	124.063	.	voice	2B-- 2dd- 2ff-
2-VII	C:maj	125.148	.	voice	2C 2e 2g
=59	=59	=59	=59	=59	=59
1i	D:min	126.233	.	voice	1D 1f 1a
=60	=60	=60	=60	=60	=60
2-VI	B-:maj	128.402	newline	voice	2B-- 2dd- 2ff-
2-VII	C:maj	129.491	.	voice	2C 2e 2g
=61	=61	=61	=61	=61	=61
2i	D:min	130.581	.	voice	2D 2f 2a
2iv	G:min	131.67	.	voice	2G 2b- 2dd
=62	=62	=62	=62	=62	=62
2-VI	B-:maj	132.76	.	voice	2B-- 2dd- 2ff-
2-VII	C:maj	133.849	.	voice	2C 2e 2g
=63	=63	=63	=63	=63	=63
1i	D:min	134.939	.	voice	1D 1f 1a
=64	=64	=64	=64	=64	=64
2-VI	B-:maj	137.118	newline	voice	2B-- 2dd- 2ff-
2-VII	C:maj	138.19	.	voice	2C 2e 2g
=65	=65	=65	=65	=65	=65
1i	D:min	139.262	.	voice	1D 1f 1a
=66	=66	=66	=66	=66	=66
2-VI	B-:maj	141.407	.	voice	2B-- 2dd- 2ff-
2-VII	C:maj	142.479	.	voice	2C 2e 2g
=67	=67	=67	=67	=67	=67
1i	D:min	143.551	.	voice	1D 1f 1a
=68	=68	=68	=68	=68	=68
2-VI	B-:maj	145.696	newline	voice	2B-- 2dd- 2ff-
2-VII	C:maj	146.789	.	voice	2C 2e 2g
=69	=69	=69	=69	=69	=69
2i	D:min	147.882	.	voice	2D 2f 2a
2iv	G:min	148.976	.	voice	2G 2b- 2dd
=70	=70	=70	=70	=70	=70
2-VI	B-:maj	150.069	.	voice	2B-- 2dd- 2ff-
2-VII	C:maj	151.162	.	voice	2C 2e 2g
=71	=71	=71	=71	=71	=71
1i	D:min	152.255	.	voice	1D 1f 1a
=72	=72	=72	=72	=72	=72
*>A_preverse	*>A_preverse	*>A_preverse	*>A_preverse	*>A_preverse	*>A_preverse
1i	D:sus4(b7)	154.442	newline	voice	1D 1f 1a
=73	=73	=73	=73	=73	=73
1i	D:sus4(b7)	156.596	.	voice	1D 1f 1a
=74	=74	=74	=74	=74	=74
1i	D:sus4(b7)	158.751	.	voice	1D 1f 1a
=75	=75	=75	=75	=75	=75
1i	D:sus4(b7)	160.906	.	voice	1D 1f 1a
=76	=76	=76	=76	=76	=76
*>A2_solo	*>A2_solo	*>A2_solo	*>A2_solo	*>A2_solo	*>A2_solo
1i7	D:min7	163.061	newline	guitar	1D 1f 1a 1cc#
=77	=77	=77	=77	=77	=77
1i7	D:min7	165.228	.	guitar	1D 1f 1a 1cc#
=78	=78	=78	=78	=78	=78
1i7	D:min7	167.394	.	guitar	1D 1f 1a 1cc#
=79	=79	=79	=79	=79	=79
1i7	D:min7	169.561	.	guitar	1D 1f 1a 1cc#
=80	=80	=80	=80	=80	=80
1i7	D:min7	171.728	newline	guitar	1D 1f 1a 1cc#
=81	=81	=81	=81	=81	=81
1i7	D:min7	173.899	.	guitar	1D 1f 1a 1cc#
=82	=82	=82	=82	=82	=82
1i7	D:min7	176.069	.	guitar	1D 1f 1a 1cc#
=83	=83	=83	=83	=83	=83
1i7	D:min7	178.24	.	guitar	1D 1f 1a 1cc#
=84	=84	=84	=84	=84	=84
*>_fadeout	*>_fadeout	*>_fadeout	*>_fadeout	*>_fadeout	*>_fadeout
1i7	D:min7	180.41	newline	guitar	1D 1f 1a 1cc#
=85	=85	=85	=85	=85	=85
1i7	D:min7	182.462	.	guitar	1D 1f 1a 1cc#
=86	=86	=86	=86	=86	=86
1i7	D:min7	184.513	.	guitar	1D 1f 1a 1cc#
=87	=87	=87	=87	=87	=87
1i7	D:min7	186.564	.	guitar	1D 1f 1a 1cc#
1r;	N	188.616	.	r	1r;
1r;	N	191.896	.	r	1r;
*-	*-	*-	*-	*-	*-
!!!OTL: Forever Man
!!!COC: Eric Clapton
!!!BillboardChartDate: 1985/04/20
!!!BillboardPeak: 26
!!!BillboardWeeksOnChart: 12
!!!SampleTargetRank: 28
!!!SampleActualRank: 27
!!!SampleID#: 0155
!!!RDF**harmony: **recip + pitch class of root + harmonic quality
!!!RDF**harte: Chris Harte's syntax, used by MIREX
!!!RDF**phrase: newline = linebreak in original McGill transcription
!!!RDF**timestamp: McGill audio timestamp in seconds
!!!RDF**leadinstrument: original McGill primary instrumentation annotation
!!!RDT: 2017/01/12/
!!!ENC: Nathaniel Condit-Schultz
!!!EST: Awating manual error checking and editing.
